X: 6
T:Scotch Reel,A. JMT.006
T:Fairy Dance,The. JMT.006
M:C
L:1/8
Q:200
S:John Moore,Tyneside,1841. (03b)
R:Reel
O:England
A:Northumbria
H:1841
Z:vmp.John Adams
K:D
A |  f2fd  f2fd |  (gf)ed (cd)eg | f2 fd (gf)ed | (cA)Bc d2d :|!
|:f| a2 af b2 ba | g2 ge a2 ag | f2 fd (gf)ed | (cA)Bc d2 d:|
